dist/icons/svgs/location-crosshairs-slash-outline.svg

<svg xmlns="http://www.w3.org/2000/svg" width="24" height="24" fill="currentcolor" class="icon-location-crosshairs-slash-outline" viewBox="0 0 24 24">
  <path d="M2.48459 2.23438L8.18771 6.6875C9.35959 5.55469 10.844 4.77344 12.5627 4.57812V2.9375C12.5627 2.42969 12.9533 2 13.5002 2C14.008 2 14.4377 2.42969 14.4377 2.9375V4.57812C17.7971 5.00781 20.4924 7.70312 20.9221 11.0625H22.5627C23.0705 11.0625 23.5002 11.4922 23.5002 12C23.5002 12.5469 23.0705 12.9375 22.5627 12.9375H20.9221C20.8049 13.9922 20.4533 15.0078 19.9065 15.8672L25.6096 20.3594C26.0393 20.6719 26.1174 21.2578 25.7658 21.6484C25.4533 22.0781 24.8674 22.1562 24.4768 21.8047L1.35177 3.67969C0.922087 3.36719 0.843962 2.78125 1.19552 2.39062C1.50802 1.96094 2.09396 1.88281 2.48459 2.23438ZM9.71115 7.85938L11.1955 9.03125C11.8205 8.5625 12.6408 8.25 13.5002 8.25C15.5705 8.25 17.2502 9.92969 17.2502 12C17.2502 12.5469 17.133 13.0547 16.9377 13.5234L18.4221 14.6953C18.8518 13.9141 19.1252 12.9766 19.1252 12C19.1252 8.91406 16.5861 6.375 13.5002 6.375C12.0158 6.375 10.6877 6.96094 9.71115 7.85938ZM15.3361 12.2734C15.3361 12.1953 15.3361 12.1172 15.3361 12C15.3361 10.9844 14.5158 10.125 13.4611 10.125C13.2268 10.125 12.9924 10.2031 12.7971 10.2812L15.3361 12.2734ZM17.1721 18.5234C16.3518 19.0312 15.4143 19.3438 14.4377 19.4609V21.0625C14.4377 21.6094 14.008 22 13.5002 22C12.9533 22 12.5627 21.6094 12.5627 21.0625V19.4609C9.16427 19.0312 6.46896 16.3359 6.03927 12.9766H4.43771C3.89084 12.9766 3.50021 12.5469 3.50021 12.0391C3.50021 11.4922 3.89084 11.1016 4.43771 11.1016H6.03927C6.07834 10.7109 6.15646 10.3203 6.27365 9.92969L7.91427 11.2188C7.87521 11.4922 7.87521 11.7656 7.87521 12.0391C7.87521 15.125 10.3752 17.6641 13.5002 17.6641C14.2033 17.6641 14.9065 17.5078 15.5705 17.2344L17.1721 18.5234Z"/>
</svg>

<svg xmlns="http://www.w3.org/2000/svg" width="24" height="24" fill="currentColor" class="icon-location-crosshairs-slash-outline" viewBox="0 0 24 24">
  <path d="m2.485 2.234 5.703 4.454c1.172-1.133 2.656-1.915 4.375-2.11v-1.64c0-.508.39-.938.937-.938a.95.95 0 0 1 .938.938v1.64c3.36.43 6.054 3.125 6.484 6.485h1.64A.95.95 0 0 1 23.5 12c0 .547-.43.938-.937.938h-1.64a6.9 6.9 0 0 1-1.016 2.93l5.703 4.491c.43.313.507.899.156 1.29-.313.43-.899.507-1.29.156L1.353 3.68c-.43-.313-.508-.899-.156-1.29.312-.43.898-.507 1.289-.156M9.71 7.86l1.484 1.172A3.9 3.9 0 0 1 13.5 8.25c2.07 0 3.75 1.68 3.75 3.75 0 .547-.117 1.055-.312 1.523l1.484 1.172c.43-.78.703-1.718.703-2.695 0-3.086-2.539-5.625-5.625-5.625a5.6 5.6 0 0 0-3.789 1.484m5.625 4.414V12c0-1.016-.82-1.875-1.875-1.875-.234 0-.469.078-.664.156zm1.836 6.25c-.82.508-1.758.82-2.734.938v1.602c0 .546-.43.937-.938.937-.547 0-.937-.39-.937-.937V19.46c-3.399-.43-6.094-3.125-6.524-6.484H4.438a.925.925 0 0 1-.938-.938c0-.547.39-.937.938-.937h1.601q.059-.587.235-1.172l1.64 1.289c-.039.273-.039.547-.039.82 0 3.086 2.5 5.625 5.625 5.625.703 0 1.406-.156 2.07-.43z"/>
</svg>
